assets/icons/whatsapp.svg

<?xml version="1.0" encoding="UTF-8"?>
<svg width="31px" height="31px" viewBox="0 0 31 31" version="1.1" xmlns="http://www.w3.org/2000/svg" xmlns:xlink="http://www.w3.org/1999/xlink">
    <!-- Generator: Sketch 59.1 (86144) - https://sketch.com -->
    <title>whatsapp</title>
    <desc>Created with Sketch.</desc>
    <defs>
        <path d="M28.225586,6.63769527 C25.3613282,3.76660151 21.546875,2.18749994 17.4931641,2.18749994 C9.12597653,2.18749994 2.31738275,8.99609371 2.31738275,17.3632812 C2.31738275,20.0361328 3.01464838,22.647461 4.34082026,24.9511719 L2.18749994,32.8125001 L10.2333984,30.7001954 C12.4482422,31.9101563 14.9433594,32.5458985 17.4863281,32.5458985 L17.4931641,32.5458985 C25.8535157,32.5458985 32.8125001,25.7373047 32.8125001,17.3701172 C32.8125001,13.3164062 31.0898438,9.50878903 28.225586,6.63769527 Z M17.4931641,29.9892579 C15.2236328,29.9892579 13.0019531,29.3808594 11.0673828,28.2324219 L10.609375,27.9589844 L5.83789058,29.209961 L7.10937496,24.5546875 L6.80859371,24.0761719 C5.54394526,22.0664063 4.88085932,19.7490234 4.88085932,17.3632812 C4.88085932,10.4111328 10.5410156,4.75097651 17.5,4.75097651 C20.8701172,4.75097651 24.0351563,6.06347651 26.4140625,8.44921871 C28.7929688,10.8349609 30.2558594,14 30.2490473,17.3701172 C30.2490473,24.3291016 24.4453125,29.9892579 17.4931641,29.9892579 Z M24.4111328,20.5419922 C24.0351563,20.3505859 22.1689453,19.4345703 21.8203125,19.3115234 C21.4716797,19.1816406 21.21875,19.1201172 20.9658203,19.5029297 C20.7128906,19.8857422 19.9882813,20.7333985 19.7626953,20.9931641 C19.5439453,21.2460938 19.3183594,21.2802735 18.9423828,21.0888672 C16.7138672,19.9746094 15.2509766,19.0996094 13.78125,16.5771484 C13.3916015,15.9072266 14.1708984,15.9550781 14.8955078,14.5058594 C15.0185547,14.2529297 14.9570312,14.0341797 14.8613281,13.8427734 C14.765625,13.6513672 14.0068359,11.7851562 13.6923828,11.0263672 C13.3847656,10.2880859 13.0703125,10.390625 12.8378906,10.3769531 C12.6191406,10.3632812 12.3662109,10.3632812 12.1132812,10.3632812 C11.8603515,10.3632812 11.4501953,10.4589843 11.1015625,10.8349609 C10.7529297,11.2177734 9.77539059,12.133789 9.77539059,14 C9.77539059,15.8662109 11.1357422,17.6708984 11.3203125,17.9238281 C11.5117187,18.1767578 13.993164,22.0048828 17.8007813,23.6523438 C20.2070313,24.6914063 21.1503906,24.7802735 22.3535156,24.6025391 C23.084961,24.4931641 24.5957032,23.6865235 24.9101563,22.7978516 C25.2246094,21.9091797 25.2246094,21.1503906 25.1289063,20.9931641 C25.0400391,20.8222656 24.7871094,20.7265625 24.4111328,20.5419922 Z" id="path-1"></path>
    </defs>
    <g id="Page-1" stroke="none" stroke-width="1" fill="none" fill-rule="evenodd">
        <g id="Desktop-HD-1" transform="translate(-1258.000000, -6486.000000)">
            <g id="footer" transform="translate(-0.000000, 6418.000000)">
                <g id="social_media" transform="translate(1106.000000, 66.000000)">
                    <g id="whatsapp" transform="translate(150.000000, 0.000000)">
                        <mask id="mask-2" fill="white">
                            <use xlink:href="#path-1"></use>
                        </mask>
                        <g fill-rule="nonzero"></g>
                        <g id="color/white" mask="url(#mask-2)" fill="#FFFFFF" fill-rule="evenodd">
                            <rect id="Rectangle" x="0" y="0" width="35" height="35"></rect>
                        </g>
                    </g>
                </g>
            </g>
        </g>
    </g>
</svg>

<svg xmlns="http://www.w3.org/2000/svg" xmlns:xlink="http://www.w3.org/1999/xlink" width="31" height="31" viewBox="0 0 31 31"><defs><path id="a" d="M28.226 6.638a15.062 15.062 0 0 0-10.733-4.45c-8.367 0-15.176 6.808-15.176 15.175 0 2.673.698 5.284 2.024 7.588l-2.154 7.862 8.046-2.113a15.13 15.13 0 0 0 7.253 1.846h.007c8.36 0 15.32-6.809 15.32-15.176 0-4.054-1.723-7.861-4.587-10.732zM17.493 29.989c-2.27 0-4.491-.608-6.426-1.757l-.458-.273-4.771 1.251 1.271-4.655-.3-.479a12.572 12.572 0 0 1-1.928-6.713c0-6.952 5.66-12.612 12.619-12.612a12.5 12.5 0 0 1 8.914 3.698c2.379 2.386 3.842 5.551 3.835 8.921 0 6.96-5.804 12.62-12.756 12.62zm6.918-9.447c-.376-.191-2.242-1.107-2.59-1.23-.35-.13-.602-.192-.855.19-.253.384-.978 1.231-1.203 1.491-.22.253-.445.287-.82.096-2.23-1.114-3.692-1.99-5.162-4.512-.39-.67.39-.622 1.115-2.071.123-.253.061-.472-.035-.663-.095-.192-.854-2.058-1.169-2.817-.307-.738-.622-.635-.854-.649-.219-.014-.472-.014-.725-.014s-.663.096-1.011.472c-.35.383-1.327 1.299-1.327 3.165s1.36 3.67 1.545 3.924c.192.253 2.673 4.08 6.48 5.728 2.407 1.04 3.35 1.128 4.554.95.731-.109 2.242-.915 2.556-1.804.315-.889.315-1.648.219-1.805-.089-.17-.342-.266-.718-.451z"/></defs><g fill="none" fill-rule="evenodd" transform="translate(-2 -2)"><mask id="b" fill="#fff"><use xlink:href="#a"/></mask><g fill="#FFF" mask="url(#b)"><path d="M0 0h35v35H0z"/></g></g></svg>
